X:29
T:Martini phase (Scottish)
R:---
C:Jean-Michel RIBEROLLE
I:abc2nwc
M:2/4
L:1/16
K:C
e f2d2|:a3f a2f2|e4dcBc|d3c BcdB|[1,3 c2Ae f2d2:|[2 A3e f2e2 :|[4 A4GABc|:
d2dc BcdB|c2A2 GABc|dedc B2g2|a4GABc|d2dc BcdB|c2A2 GABc|dedc B2G2|[1A4GABc:|[2 A3|]

%%footer $D   Galouvielle-MBe 2006 \nScottish (--)
